src/assets/cards/platform/Convex.svg

<?xml version="1.0" encoding="utf-8"?>
<!-- Generator: Adobe Illustrator 26.0.1, SVG Export Plug-In . SVG Version: 6.00 Build 0)  -->
<svg version="1.1" id="Layer_1" xmlns="http://www.w3.org/2000/svg" xmlns:xlink="http://www.w3.org/1999/xlink" x="0px" y="0px"
	 viewBox="0 0 124.2 143.6" style="enable-background:new 0 0 124.2 143.6;" xml:space="preserve">
<style type="text/css">
	.st0{fill:#1682FE;}
	.st1{fill:#60D8A4;}
	.st2{fill:#F4BB3B;}
	.st3{fill:#FF5A5A;}
	.st4{fill:#3A3A3A;}
</style>
<rect x="71.8" y="28" class="st0" width="10" height="15.1"/>
<rect x="43.1" class="st0" width="10" height="15.1"/>
<rect x="14.4" y="14.4" class="st1" width="10" height="15.1"/>
<rect y="71.8" class="st2" width="10.1" height="43.1"/>
<rect y="28.7" class="st1" width="10.1" height="43.1"/>
<rect x="86.1" y="42.4" class="st0" width="10" height="15.1"/>
<rect x="86.1" y="86.1" class="st3" width="10" height="15.1"/>
<rect x="71.8" y="100.5" class="st3" width="10" height="15.1"/>
<rect x="43.1" y="128.5" class="st3" width="10" height="15.1"/>
<rect x="14.4" y="114.1" class="st2" width="10" height="15.1"/>
<path class="st4" d="M124.2,57.4V28.7h-14.4V14.4H81.1V0H52.4v14.4H23.7v14.4H9.3v86.1h14.4v14.4h28.7v14.4h28.7v-14.4h28.7v-14.4
	h14.4V86.1H95.5v14.4H81.1v14.4H52.4v-14.4H38.1V43.1h14.4V28.7h28.7v14.4h14.4v14.4H124.2z"/>
</svg>

<svg xmlns="http://www.w3.org/2000/svg" xmlns:xlink="http://www.w3.org/1999/xlink" id="body_1" width="399" height="300">
<g transform="matrix(2.0891366 0 0 2.0891366 69.76463 -0)">
    <path d="M71.8 28L81.8 28L81.8 43.1L71.8 43.1z" stroke="none" fill="#1682FE" fill-rule="nonzero" />
    <path d="M43.1 0L53.1 0L53.1 15.1L43.1 15.1z" stroke="none" fill="#1682FE" fill-rule="nonzero" />
    <path d="M14.4 14.4L24.4 14.4L24.4 29.5L14.4 29.5z" stroke="none" fill="#60D8A4" fill-rule="nonzero" />
    <path d="M0 71.8L10.1 71.8L10.1 114.9L0 114.9z" stroke="none" fill="#F4BB3B" fill-rule="nonzero" />
    <path d="M0 28.7L10.1 28.7L10.1 71.8L0 71.8z" stroke="none" fill="#60D8A4" fill-rule="nonzero" />
    <path d="M86.1 42.4L96.1 42.4L96.1 57.5L86.1 57.5z" stroke="none" fill="#1682FE" fill-rule="nonzero" />
    <path d="M86.1 86.1L96.1 86.1L96.1 101.2L86.1 101.2z" stroke="none" fill="#FF5A5A" fill-rule="nonzero" />
    <path d="M71.8 100.5L81.8 100.5L81.8 115.6L71.8 115.6z" stroke="none" fill="#FF5A5A" fill-rule="nonzero" />
    <path d="M43.1 128.5L53.1 128.5L53.1 143.6L43.1 143.6z" stroke="none" fill="#FF5A5A" fill-rule="nonzero" />
    <path d="M14.4 114.1L24.4 114.1L24.4 129.2L14.4 129.2z" stroke="none" fill="#F4BB3B" fill-rule="nonzero" />
    <path d="M124.2 57.4L124.2 28.7L109.799995 28.7L109.799995 14.4L81.1 14.4L81.1 0L52.4 0L52.4 14.4L23.7 14.4L23.7 28.8L9.3 28.8L9.3 114.899994L23.7 114.899994L23.7 129.29999L52.4 129.29999L52.4 143.69998L81.100006 143.69998L81.100006 129.29999L109.8 129.29999L109.8 114.89999L124.200005 114.89999L124.200005 86.1L95.5 86.1L95.5 100.5L81.1 100.5L81.1 114.9L52.4 114.9L52.4 100.5L38.1 100.5L38.1 43.1L52.5 43.1L52.5 28.7L81.2 28.7L81.2 43.1L95.6 43.1L95.6 57.5L124.2 57.5L124.2 57.4z" stroke="none" fill="#3A3A3A" fill-rule="nonzero" />
</g>
</svg>
